X:30
T:In Mobile
N: Student Bar of Newcastle University Mens Union
z: David Kidd of davidkidd.net
Q:1/4=90
M:2/4
L:1/16
K:G
B,2D2 G2G2|G2G2 E2D2|B,2D2 G4 |G2G2 G4|
G2A2 B2B2 |B2B2 d2d2 |d2B2 A4 |A2A2 A4|
d2c2 B2B2 |B2B2 A2G2| G2G2 E4 |E4 A2G2|
F2E2 D4 |D4 B2G2 | A2F2 G4- | G8|
d2d2 d4- |d8 |B2 G2 |A8-|A8
d2d2 d2d2 |d2d2 B2G2 | A4d4 |e4d4|
B8|G8|E8|d4c4|B8|A8|G8|
